packages/foundations/assets/icons/functional/images/buildings/house_20.svg

<svg width="20" height="20" viewBox="0 0 20 20" fill="none" xmlns="http://www.w3.org/2000/svg">
<g clip-path="url(#clip0_184_193)">
<path fill-rule="evenodd" clip-rule="evenodd" d="M10 2C10.995 2 11.463 2.585 11.893 3.015L17.707 8.81C17.902 9.005 18 9.258 18 9.532C18 10.098 17.532 10.527 16.966 10.527C16.732 10.527 16.517 10.468 16.361 10.312L15.991 9.922V16.985C15.991 17.532 15.483 18 14.995 18H5.005C4.74051 17.991 4.48963 17.8806 4.30437 17.6916C4.11911 17.5026 4.0137 17.2496 4.01 16.985V9.922L3.717 10.234C3.62509 10.3267 3.51574 10.4003 3.39526 10.4506C3.27479 10.5009 3.14555 10.5269 3.015 10.527C2.429 10.527 2 10.078 2 9.493C2 9.278 2.078 9.063 2.234 8.907L8.107 3.015C8.537 2.585 9.005 2 10 2ZM10 4L6 8V16H14V8L10 4Z" fill="#1A1C1F"/>
</g>
<defs>
<clipPath id="clip0_184_193">
<rect width="20" height="20" fill="white"/>
</clipPath>
</defs>
</svg>

<svg xmlns="http://www.w3.org/2000/svg" width="20" height="20" fill="none"><g clip-path="url(#a)"><path fill="#1A1C1F" fill-rule="evenodd" d="M10 2c.995 0 1.463.585 1.893 1.015l5.814 5.795c.195.195.293.448.293.722 0 .566-.468.995-1.034.995-.234 0-.449-.059-.605-.215l-.37-.39v7.063c0 .547-.508 1.015-.996 1.015h-9.99a1.03 1.03 0 0 1-.995-1.015V9.922l-.293.312a1 1 0 0 1-.702.293C2.429 10.527 2 10.078 2 9.493c0-.215.078-.43.234-.586l5.873-5.892C8.537 2.585 9.005 2 10 2m0 2L6 8v8h8V8z" clip-rule="evenodd"/></g><defs><clipPath id="a"><path fill="#fff" d="M0 0h20v20H0z"/></clipPath></defs></svg>
